public/logos/grasshopper.svg

<svg fill="none" height="40" viewBox="0 0 203 40" width="203" xmlns="http://www.w3.org/2000/svg" xmlns:xlink="http://www.w3.org/1999/xlink"><clipPath id="a"><path d="m0 0h203v40h-203z"/></clipPath><g clip-path="url(#a)" fill="#fff"><path d="m46.6738 34.918c-6.0738 0-8.3799-3.6721-8.3799-9.0819v-3.3115c0-5.2787 2.3061-9.082 8.5098-9.082 2.0787 0 4.125.4918 5.5866 1.7049.3572.3607.4872.7214.4872.8525 0 .4918-.4872 1.2131-1.3317 1.2131-.4872 0-.8445-.1311-1.3317-.4918-.8445-.7213-2.0787-.8524-3.5403-.8524-3.7677 0-5.5866 2.3278-5.5866 6.8852v3.3115c0 4.7869 1.5915 6.8852 5.3592 6.8852 3.5403 0 4.872-1.9672 4.872-4.7869v-1.6065h-4.0275c-.7146 0-1.3317-.4918-1.3317-1.2131s.7146-1.2131 1.3317-1.2131h5.3592c.8445 0 1.3317.4918 1.3317 1.2131v2.5901c.2598 4.0656-1.9488 6.9836-7.308 6.9836zm18.8709-12.2623c-.3573 0-.7146-.1311-1.5916-.1311-1.3316 0-3.1505.3607-3.6377 2.5902v8.5901c0 .7213-.7146 1.2131-1.3317 1.2131-.8445 0-1.3317-.4918-1.3317-1.2131v-9.836c0-1.2132-.3572-1.6066-1.1043-1.705-.3573-.1311-.4872-.4918-.4872-.8524 0-.7213.4872-1.1148 1.3317-1.1148h.4872c1.2017.3607 1.9488 1.1148 2.3061 1.7049 1.3316-1.7049 3.2804-1.9672 4.5147-1.9672.8445 0 1.5915.1312 2.3061.3607.7145.1311.8444.8524.4872 1.3442-.4872.6558-1.1044 1.246-1.9488 1.0164zm14.4536 12.2623c-.7146 0-1.3317-.3606-1.689-.4918-.3573-.1311-.4872-.4918-.7146-.8524-1.2017 1.2131-3.1505 1.3442-4.5147 1.3442-4.0275 0-5.7165-1.9672-5.7165-4.1639v-.1311c0-2.4591 1.9489-4.164 6.0738-4.164h3.7677v-.7213c0-2.3279-.7146-3.5738-3.2805-3.5738-1.5915 0-2.5659.3607-3.2805.7213-1.5915.7214-2.7933-1.1147-1.3317-1.7049 1.3317-.7213 2.9232-1.1147 4.872-1.1147 4.7421 0 6.0738 1.9672 6.0738 5.7705v5.4098c0 1.2131.3573 1.6066.8445 1.7049.3573.1312.4872.4918.4872.8525-.2598.7541-.7146 1.1147-1.5915 1.1147zm-3.0207-6.6229h-3.5403c-2.7933 0-3.5403 1.1147-3.5403 2.3279v.1311c0 1.2131.7145 2.3279 3.2805 2.3279 2.306 0 3.5403-1.1148 3.5403-2.9509v-1.836zm11.3031 6.6229c-2.0788 0-3.2805-.1311-4.7421-.7213-.7146-.1311-.8445-.8524-.7146-1.3442.3573-.4918.8445-.8525 1.5915-.7213 1.1044.3606 2.0788.4918 3.7677.4918 2.436 0 3.5403-.8525 3.5403-2.3279 0-1.7049-2.436-1.9672-4.742-2.459-2.0788-.3607-4.125-1.2131-4.125-3.8033 0-2.8197 2.436-4.4262 5.5866-4.4262 1.9488 0 2.9232.1311 4.1249.4918.7146.3606 1.1044.8524.7146 1.3442-.1299.4918-.8445.8525-1.5915.7213-1.1044-.3606-2.0787-.4918-3.2805-.4918-2.0787 0-2.9232.8525-2.9232 2.0984 0 1.6066 1.9488 1.7049 4.1249 2.3279 2.3061.3606 4.7421 1.1147 4.7421 4.0655.3573 3.4099-2.436 4.7541-6.0737 4.7541zm13.3813 0c-2.0783 0-3.2801-.1311-4.7417-.7213-.7145-.1311-.8444-.8524-.7145-1.3442.3573-.4918.8445-.8525 1.5915-.7213 1.1043.3606 2.0787.4918 3.7677.4918 2.436 0 3.54-.8525 3.54-2.3279 0-1.7049-2.436-1.9672-4.742-2.459-2.0785-.3607-4.1247-1.2131-4.1247-3.8033 0-2.8197 2.436-4.4262 5.5867-4.4262 1.949 0 2.923.1311 4.125.4918.714.3606 1.104.8524.714 1.3442-.13.4918-.844.8525-1.591.7213-1.104-.3606-2.079-.4918-3.281-.4918-2.0784 0-2.9229.8525-2.9229 2.0984 0 1.6066 1.9489 1.7049 4.1249 2.3279 2.306.3606 4.742 1.1147 4.742 4.0655.357 3.4099-2.436 4.7541-6.074 4.7541zm20.171 0c-.845 0-1.332-.4918-1.332-1.2131v-8.2295c0-1.9672-.487-3.1803-3.151-3.1803-1.949 0-3.28.7213-4.027 1.7049v9.4426c0 .7213-.715 1.2131-1.332 1.2131-.844 0-1.332-.4918-1.332-1.2131v-18.5246c0-.7213.715-1.2131 1.332-1.2131.845 0 1.332.4918 1.332 1.2131v6.2623c1.104-.8524 2.566-1.3442 4.514-1.3442 4.125 0 5.36 2.3278 5.36 5.2787v8.459c0 .8524-.488 1.3442-1.364 1.3442zm10.361 0c-4.742 0-6.561-2.5901-6.561-6v-2.9508c0-3.3115 1.948-6 6.561-6 4.742 0 6.561 2.5902 6.561 6v2.9508c.227 3.4427-1.819 6-6.561 6zm3.865-8.9508c0-2.3278-1.105-3.6721-3.768-3.6721-2.566 0-3.638 1.3443-3.638 3.6721v2.9508c0 2.3279 1.105 3.6722 3.638 3.6722 2.534 0 3.768-1.3443 3.768-3.6722zm12.537 8.9508c-1.202 0-2.793-.3606-3.768-1.1147v4.918c0 .7213-.714 1.2131-1.331 1.2131-.845 0-1.332-.4918-1.332-1.2131v-14.9836c0-1.2131-.357-1.6065-.844-1.7049-.358-.1312-.488-.4918-.488-.8525 0-.7213.715-1.1147 1.332-1.1147.487 0 1.202.1311 1.689.4918.13.1311.487.3606.715.7213 1.201-.8525 2.793-1.2131 4.384-1.2131 4.385 0 6.074 2.0983 6.074 5.7705v2.5901c-.585 3.9345-2.176 6.4918-6.431 6.4918zm2.923-9.3114c0-2.3279-.844-3.5738-3.638-3.5738-1.104 0-2.306.3606-3.28 1.2131v8.0984c1.104.8524 2.436 1.3442 3.54 1.3442 2.436 0 3.541-1.3442 3.541-3.8032v-3.3115h-.163zm12.538 9.3114c-1.202 0-2.794-.3606-4.028-1.1147v4.918c0 .7213-.715 1.2131-1.332 1.2131-.844 0-1.331-.4918-1.331-1.2131v-14.9836c0-1.2131-.358-1.6065-.845-1.7049-.357-.1312-.487-.4918-.487-.8525 0-.7213.715-1.1147 1.332-1.1147.487 0 1.201.1311 1.689.4918.357.1311.487.3606.714.7213 1.202-.8525 2.793-1.2131 4.385-1.2131 4.385 0 6.074 2.0983 6.074 5.7705v2.5901c-.358 3.9345-1.917 6.4918-6.171 6.4918zm2.923-9.3114c0-2.3279-.845-3.5738-3.638-3.5738-1.104 0-2.306.3606-3.281 1.2131v8.0984c1.105.8524 2.436 1.3442 3.541 1.3442 2.436 0 3.54-1.3442 3.54-3.8032v-3.3115h-.162zm17.734 1.6065c0 .4918-.487 1.1148-1.105 1.1148h-8.996v.7213c0 2.3279 1.201 3.6721 3.637 3.6721 1.949 0 2.923-.3606 4.125-.8524.715-.3607 1.332 0 1.592.4918.13.4918 0 1.1147-.487 1.3442-1.592.7213-3.281 1.1148-5.23 1.1148-4.742 0-6.431-2.8197-6.431-6.1312v-2.459c0-3.3115 1.949-6.1311 6.431-6.1311 4.872 0 6.431 2.8196 6.431 6.1311zm-2.793-1.377c0-2.3279-.845-3.6722-3.638-3.6722-2.566 0-3.638 1.3443-3.638 3.6722v.4918h7.308v-.4918zm13.609-3.1804c-.358 0-.715-.1311-1.592-.1311-1.332 0-3.15.3607-3.638 2.5902v8.5901c0 .7213-.714 1.2131-1.331 1.2131-.845 0-1.332-.4918-1.332-1.2131v-9.836c0-1.2132-.357-1.6066-1.104-1.705-.358-.1311-.488-.4918-.488-.8524 0-.7213.488-1.1148 1.332-1.1148h.487c1.202.3607 1.949 1.1148 2.306 1.7049 1.332-1.7049 3.281-1.9672 4.515-1.9672.845 0 1.592.1312 2.306.3607.715.1311.845.8524.487 1.3442-.487.6558-.974 1.246-1.948 1.0164z"/><path d="m20.0403.0654297c8.5096 2.9508203 14.1286 11.8032703 12.7646 21.2128703-.2273 1.1148-.3575 1.9679-.7148 2.8203-.6173 5.0162-5.0018 9.8027-11.0752 12.2618 1.4614-1.9344 2.4357-3.9018 2.793-6-2.2087 3.2131-5.4894 5.7703-9.6143 7.3769-6.2035.2623-11.82262-2.5568-13.511715-7.4746-2.306085-6.4918 2.923835-14.2298 11.433615-17.1807 6.2035-2.0982 12.6347-1.2459 16.5322 1.836-1.6889-3.3114-4.8722-5.76997-8.5098-6.8848v-1.34472c5.489 1.4755 9.7436 5.77092 11.0752 11.41012.0001.2292.1299.2293.1299.3604 0-7.3442-4.482-13.99993-11.3027-16.68849zm4.7324 19.7909703c-.8632-3.7012-5.4838-5.7701-10.3203-4.621-4.83672 1.1491-8.05835 5.0817-7.19532 8.7832.86322 3.7012 5.48382 5.7701 10.32032 4.621 4.8367-1.1491 8.0583-5.0817 7.1953-8.7832zm-7.7734-2.7636c1.9554-.465 3.8277.3867 4.1816 1.9023.3537 1.5159-.9447 3.1219-2.9004 3.5869-1.9555.465-3.8278-.3866-4.1816-1.9023-.3537-1.5158.9449-3.1218 2.9004-3.5869z"/><path d="m200.759 19.3443c.974 0 1.689.7213 1.689 1.7049 0 .9837-.715 1.705-1.689 1.705-.975 0-1.689-.7213-1.689-1.705 0-.9836.714-1.7049 1.689-1.7049zm0-.2623c-1.104 0-1.949.8525-1.949 1.9672 0 1.1148.845 1.9673 1.949 1.9673s1.949-.8525 1.949-1.9673c0-1.1147-.975-1.9672-1.949-1.9672z"/><path d="m201.506 20.5574c0 .1312 0 .2295-.13.3607-.13.1311-.13.2295-.227.2295l.617.9836h-.487l-.488-.8525h-.227v.8525h-.357v-2.1968h.714c.228 0 .488.0001.617.1312-.162.1312-.032.3934-.032.4918zm-.487.1312c0-.1312 0-.1312-.13-.2296 0 0-.13-.1311-.228-.1311h-.259v.6229h.227c.13 0 .13 0 .227-.1311.033 0 .163-.1311.163-.1311z"/></g></svg>

<svg width="203" height="40" viewBox="0 0 203 40" fill="none" xmlns="http://www.w3.org/2000/svg">
<g clip-path="url(#clip0_8_418)">
<path d="M46.6738 34.918C40.6 34.918 38.2939 31.2459 38.2939 25.8361V22.5246C38.2939 17.2459 40.6 13.4426 46.8037 13.4426C48.8824 13.4426 50.9287 13.9344 52.3903 15.1475C52.7475 15.5082 52.8775 15.8689 52.8775 16C52.8775 16.4918 52.3903 17.2131 51.5458 17.2131C51.0586 17.2131 50.7013 17.082 50.2141 16.7213C49.3696 16 48.1354 15.8689 46.6738 15.8689C42.9061 15.8689 41.0872 18.1967 41.0872 22.7541V26.0656C41.0872 30.8525 42.6787 32.9508 46.4464 32.9508C49.9867 32.9508 51.3184 30.9836 51.3184 28.1639V26.5574H47.2909C46.5763 26.5574 45.9592 26.0656 45.9592 25.3443C45.9592 24.623 46.6738 24.1312 47.2909 24.1312H52.6501C53.4946 24.1312 53.9818 24.623 53.9818 25.3443V27.9344C54.2416 32 52.033 34.918 46.6738 34.918ZM65.5447 22.6557C65.1874 22.6557 64.8301 22.5246 63.9531 22.5246C62.6215 22.5246 60.8026 22.8853 60.3154 25.1148V33.7049C60.3154 34.4262 59.6008 34.918 58.9837 34.918C58.1392 34.918 57.652 34.4262 57.652 33.7049V23.8689C57.652 22.6557 57.2948 22.2623 56.5477 22.1639C56.1904 22.0328 56.0605 21.6721 56.0605 21.3115C56.0605 20.5902 56.5477 20.1967 57.3922 20.1967H57.8794C59.0811 20.5574 59.8282 21.3115 60.1855 21.9016C61.5171 20.1967 63.4659 19.9344 64.7002 19.9344C65.5447 19.9344 66.2917 20.0656 67.0063 20.2951C67.7208 20.4262 67.8507 21.1475 67.4935 21.6393C67.0063 22.2951 66.3891 22.8853 65.5447 22.6557ZM79.9983 34.918C79.2837 34.918 78.6666 34.5574 78.3093 34.4262C77.952 34.2951 77.8221 33.9344 77.5947 33.5738C76.393 34.7869 74.4442 34.918 73.08 34.918C69.0525 34.918 67.3635 32.9508 67.3635 30.7541V30.623C67.3635 28.1639 69.3124 26.459 73.4373 26.459H77.205V25.7377C77.205 23.4098 76.4904 22.1639 73.9245 22.1639C72.333 22.1639 71.3586 22.5246 70.644 22.8852C69.0525 23.6066 67.8507 21.7705 69.3123 21.1803C70.644 20.459 72.2355 20.0656 74.1843 20.0656C78.9264 20.0656 80.2581 22.0328 80.2581 25.8361V31.2459C80.2581 32.459 80.6154 32.8525 81.1026 32.9508C81.4599 33.082 81.5898 33.4426 81.5898 33.8033C81.33 34.5574 80.8752 34.918 79.9983 34.918ZM76.9776 28.2951H73.4373C70.644 28.2951 69.897 29.4098 69.897 30.623V30.7541C69.897 31.9672 70.6115 33.082 73.1775 33.082C75.4835 33.082 76.7178 31.9672 76.7178 30.1311V28.2951H76.9776ZM88.2807 34.918C86.2019 34.918 85.0002 34.7869 83.5386 34.1967C82.824 34.0656 82.6941 33.3443 82.824 32.8525C83.1813 32.3607 83.6685 32 84.4155 32.1312C85.5199 32.4918 86.4943 32.623 88.1832 32.623C90.6192 32.623 91.7235 31.7705 91.7235 30.2951C91.7235 28.5902 89.2875 28.3279 86.9815 27.8361C84.9027 27.4754 82.8565 26.623 82.8565 24.0328C82.8565 21.2131 85.2925 19.6066 88.4431 19.6066C90.3919 19.6066 91.3663 19.7377 92.568 20.0984C93.2826 20.459 93.6724 20.9508 93.2826 21.4426C93.1527 21.9344 92.4381 22.2951 91.6911 22.1639C90.5867 21.8033 89.6124 21.6721 88.4106 21.6721C86.3319 21.6721 85.4874 22.5246 85.4874 23.7705C85.4874 25.3771 87.4362 25.4754 89.6123 26.0984C91.9184 26.459 94.3544 27.2131 94.3544 30.1639C94.7117 33.5738 91.9184 34.918 88.2807 34.918ZM101.662 34.918C99.5837 34.918 98.3819 34.7869 96.9203 34.1967C96.2058 34.0656 96.0759 33.3443 96.2058 32.8525C96.5631 32.3607 97.0503 32 97.7973 32.1312C98.9016 32.4918 99.876 32.623 101.565 32.623C104.001 32.623 105.105 31.7705 105.105 30.2951C105.105 28.5902 102.669 28.3279 100.363 27.8361C98.2845 27.4754 96.2383 26.623 96.2383 24.0328C96.2383 21.2131 98.6743 19.6066 101.825 19.6066C103.774 19.6066 104.748 19.7377 105.95 20.0984C106.664 20.459 107.054 20.9508 106.664 21.4426C106.534 21.9344 105.82 22.2951 105.073 22.1639C103.969 21.8033 102.994 21.6721 101.792 21.6721C99.7136 21.6721 98.8691 22.5246 98.8691 23.7705C98.8691 25.3771 100.818 25.4754 102.994 26.0984C105.3 26.459 107.736 27.2131 107.736 30.1639C108.093 33.5738 105.3 34.918 101.662 34.918ZM121.833 34.918C120.988 34.918 120.501 34.4262 120.501 33.7049V25.4754C120.501 23.5082 120.014 22.2951 117.35 22.2951C115.401 22.2951 114.07 23.0164 113.323 24V33.4426C113.323 34.1639 112.608 34.6557 111.991 34.6557C111.147 34.6557 110.659 34.1639 110.659 33.4426V14.918C110.659 14.1967 111.374 13.7049 111.991 13.7049C112.836 13.7049 113.323 14.1967 113.323 14.918V21.1803C114.427 20.3279 115.889 19.8361 117.837 19.8361C121.962 19.8361 123.197 22.1639 123.197 25.1148V33.5738C123.197 34.4262 122.709 34.918 121.833 34.918ZM132.194 34.918C127.452 34.918 125.633 32.3279 125.633 28.918V25.9672C125.633 22.6557 127.581 19.9672 132.194 19.9672C136.936 19.9672 138.755 22.5574 138.755 25.9672V28.918C138.982 32.3607 136.936 34.918 132.194 34.918ZM136.059 25.9672C136.059 23.6394 134.954 22.2951 132.291 22.2951C129.725 22.2951 128.653 23.6394 128.653 25.9672V28.918C128.653 31.2459 129.758 32.5902 132.291 32.5902C134.825 32.5902 136.059 31.2459 136.059 28.918V25.9672ZM148.596 34.918C147.394 34.918 145.803 34.5574 144.828 33.8033V38.7213C144.828 39.4426 144.114 39.9344 143.497 39.9344C142.652 39.9344 142.165 39.4426 142.165 38.7213V23.7377C142.165 22.5246 141.808 22.1312 141.321 22.0328C140.963 21.9016 140.833 21.541 140.833 21.1803C140.833 20.459 141.548 20.0656 142.165 20.0656C142.652 20.0656 143.367 20.1967 143.854 20.5574C143.984 20.6885 144.341 20.918 144.569 21.2787C145.77 20.4262 147.362 20.0656 148.953 20.0656C153.338 20.0656 155.027 22.1639 155.027 25.8361V28.4262C154.442 32.3607 152.851 34.918 148.596 34.918ZM151.519 25.6066C151.519 23.2787 150.675 22.0328 147.881 22.0328C146.777 22.0328 145.575 22.3934 144.601 23.2459V31.3443C145.705 32.1967 147.037 32.6885 148.141 32.6885C150.577 32.6885 151.682 31.3443 151.682 28.8853V25.5738H151.519V25.6066ZM164.057 34.918C162.855 34.918 161.263 34.5574 160.029 33.8033V38.7213C160.029 39.4426 159.314 39.9344 158.697 39.9344C157.853 39.9344 157.366 39.4426 157.366 38.7213V23.7377C157.366 22.5246 157.008 22.1312 156.521 22.0328C156.164 21.9016 156.034 21.541 156.034 21.1803C156.034 20.459 156.749 20.0656 157.366 20.0656C157.853 20.0656 158.567 20.1967 159.055 20.5574C159.412 20.6885 159.542 20.918 159.769 21.2787C160.971 20.4262 162.562 20.0656 164.154 20.0656C168.539 20.0656 170.228 22.1639 170.228 25.8361V28.4262C169.87 32.3607 168.311 34.918 164.057 34.918ZM166.98 25.6066C166.98 23.2787 166.135 22.0328 163.342 22.0328C162.238 22.0328 161.036 22.3934 160.061 23.2459V31.3443C161.166 32.1967 162.497 32.6885 163.602 32.6885C166.038 32.6885 167.142 31.3443 167.142 28.8853V25.5738H166.98V25.6066ZM184.714 27.2131C184.714 27.7049 184.227 28.3279 183.609 28.3279H174.613V29.0492C174.613 31.3771 175.814 32.7213 178.25 32.7213C180.199 32.7213 181.173 32.3607 182.375 31.8689C183.09 31.5082 183.707 31.8689 183.967 32.3607C184.097 32.8525 183.967 33.4754 183.48 33.7049C181.888 34.4262 180.199 34.8197 178.25 34.8197C173.508 34.8197 171.819 32 171.819 28.6885V26.2295C171.819 22.918 173.768 20.0984 178.25 20.0984C183.122 20.0984 184.681 22.918 184.681 26.2295L184.714 27.2131ZM181.921 25.8361C181.921 23.5082 181.076 22.1639 178.283 22.1639C175.717 22.1639 174.645 23.5082 174.645 25.8361V26.3279H181.953V25.8361H181.921ZM195.53 22.6557C195.172 22.6557 194.815 22.5246 193.938 22.5246C192.606 22.5246 190.788 22.8853 190.3 25.1148V33.7049C190.3 34.4262 189.586 34.918 188.969 34.918C188.124 34.918 187.637 34.4262 187.637 33.7049V23.8689C187.637 22.6557 187.28 22.2623 186.533 22.1639C186.175 22.0328 186.045 21.6721 186.045 21.3115C186.045 20.5902 186.533 20.1967 187.377 20.1967H187.864C189.066 20.5574 189.813 21.3115 190.17 21.9016C191.502 20.1967 193.451 19.9344 194.685 19.9344C195.53 19.9344 196.277 20.0656 196.991 20.2951C197.706 20.4262 197.836 21.1475 197.478 21.6393C196.991 22.2951 196.504 22.8853 195.53 22.6557Z" fill="white"/>
<path d="M20.0403 0.0654297C28.5499 3.01625 34.1689 11.8687 32.8049 21.2783C32.5776 22.3931 32.4474 23.2462 32.0901 24.0986C31.4728 29.1148 27.0883 33.9013 21.0149 36.3604C22.4763 34.426 23.4506 32.4586 23.8079 30.3604C21.5992 33.5735 18.3185 36.1307 14.1936 37.7373C7.9901 37.9996 2.37098 35.1805 0.681885 30.2627C-1.6242 23.7709 3.60572 16.0329 12.1155 13.082C18.319 10.9838 24.7502 11.8361 28.6477 14.918C26.9588 11.6066 23.7755 9.14803 20.1379 8.0332V6.68848C25.6269 8.16398 29.8815 12.4594 31.2131 18.0986C31.2132 18.3278 31.343 18.3279 31.343 18.459C31.343 11.1148 26.861 4.45907 20.0403 1.77051V0.0654297ZM24.7727 19.8564C23.9095 16.1552 19.2889 14.0863 14.4524 15.2354C9.61568 16.3845 6.39405 20.3171 7.25708 24.0186C8.1203 27.7198 12.7409 29.7887 17.5774 28.6396C22.4141 27.4905 25.6357 23.5579 24.7727 19.8564ZM16.9993 17.0928C18.9547 16.6278 20.827 17.4795 21.1809 18.9951C21.5346 20.511 20.2362 22.117 18.2805 22.582C16.325 23.047 14.4527 22.1954 14.0989 20.6797C13.7452 19.1639 15.0438 17.5579 16.9993 17.0928Z" fill="white"/>
<path d="M200.759 19.3443C201.733 19.3443 202.448 20.0656 202.448 21.0492C202.448 22.0329 201.733 22.7542 200.759 22.7542C199.784 22.7542 199.07 22.0329 199.07 21.0492C199.07 20.0656 199.784 19.3443 200.759 19.3443ZM200.759 19.082C199.655 19.082 198.81 19.9345 198.81 21.0492C198.81 22.164 199.655 23.0165 200.759 23.0165C201.863 23.0165 202.708 22.164 202.708 21.0492C202.708 19.9345 201.733 19.082 200.759 19.082Z" fill="white"/>
<path d="M201.506 20.5574C201.506 20.6886 201.506 20.7869 201.376 20.9181C201.246 21.0492 201.246 21.1476 201.149 21.1476L201.766 22.1312H201.279L200.791 21.2787H200.564V22.1312H200.207V19.9344H200.921C201.149 19.9344 201.409 19.9345 201.538 20.0656C201.376 20.1968 201.506 20.459 201.506 20.5574ZM201.019 20.6886C201.019 20.5574 201.019 20.5574 200.889 20.459C200.889 20.459 200.759 20.3279 200.661 20.3279H200.402V20.9508H200.629C200.759 20.9508 200.759 20.9508 200.856 20.8197C200.889 20.8197 201.019 20.6886 201.019 20.6886Z" fill="white"/>
</g>
<defs>
<clipPath id="clip0_8_418">
<rect width="203" height="40" fill="white"/>
</clipPath>
</defs>
</svg>
